public/avatar/body/65.svg

<svg xmlns:xlink="http://www.w3.org/1999/xlink" height="82" width="84.85" xmlns="http://www.w3.org/2000/svg"><g transform="translate(37.4 42.25)"><use height="38" transform="translate(-11.95 -17.45)" width="32.05" xlink:href="#a"/><use height="21.6" transform="translate(-12.25 -17.95)" width="32.65" xlink:href="#b"/><use height="36.2" transform="translate(-22.2 -4.15)" width="52.8" xlink:href="#c"/></g><defs><path d="M27.35 7.4q2.15 4.15 3.55 8.75 1.45 4.7 1.15 9.5-.35 4.95-4.2 8.1-3.8 3.2-8.75 4.05l-2.6.2q-3.6 0-7.05-1.15-4.65-1.6-7.1-5.5Q-.2 27.4.05 23q.2-4.4 2-9.3Q3.85 8.75 7 5.05 10.1 1.3 14.7.1l1.8-.1q1.9.05 3.7.8 4.75 2.05 7.15 6.6" fill="#fff" fill-rule="evenodd" transform="translate(-.05)" id="d"/><path d="M31.9 20.6q-.3-2.25-1-4.45-1.4-4.6-3.55-8.75-2.4-4.55-7.15-6.6-2.65-1.1-5.5-.7Q10.1 1.3 7 5.05q-3.15 3.7-4.95 8.65Q.7 17.3.25 20.6" fill="none" stroke="#000" stroke-linecap="round" stroke-linejoin="round" transform="translate(.25 .5)" id="e"/><use height="38" width="32.05" xlink:href="#d" id="a"/><use height="21.6" width="32.65" xlink:href="#e" id="b"/><g id="c"><path d="M-4.2-2.3q.7 1.85.2 3.15-.4 1.2-2 1.8l-2.25.1Q-9.05 2.3-9.7.5q-.75-1.95.1-2.65Q-7.4-3.9-5.85-4q.95-.1 1.65 1.7m17.45-1.4q3.7-1.35 3.8 1.25.15 2.4-2.2 4.5-2 1.8-2.85-1.6-.8-3.4 1.25-4.15" fill="#ffc4c4" fill-rule="evenodd" transform="translate(22.2 4.15)"/><path d="m40.2 18.35-.3.3-.25.35-.3.3-.25.35-.6.6-.55.4-.15.15-.5.4-.25.15-.2.2-.8.5-.2.2-1.05.6-2.2 1.05-3.55.95-4.9.1-4.75-1-2.2-1-1.9-1.2-1.65-1.5-1.35-1.8" fill="none" stroke="#333" stroke-linecap="round" stroke-linejoin="round" stroke-width=".95"/><path d="M4.3 20.75q-10.4 0-14.45-8.25-1.25-2.6-1.75-5.7l-.2-2.6q10.6 4 14.75 4.25 3.7.2 9.6-1.75l7.65-3q.3 4.25-1.55 8.55-3.6 8.5-14.05 8.5" fill="#bfeeff" fill-rule="evenodd" transform="translate(22.2 4.15)"/><path d="M-9.45 5.45Q-1.2 8.5 3.9 8.5t12.85-3.4" fill="none" stroke="#0089a1" stroke-linecap="round" stroke-linejoin="round" transform="translate(22.2 4.15)"/><path d="m21.15 11.5 2.25 2q2.55 2.6 4.25 5.5 3.6 6.35 2.25 8.15l-1.5.25-2.9.45q-1.65 1.95-3.5 2.4l-3.05.25-2.65-.15q-3.9 1.2-6.5 1.2-3.5-1.2-6.15-1.2l-6.35.95-2.9-.9q-1.8-.9-2.75-1.05l-6.35.25q-.9-.2-1.85-.95-1.05-.8-1.45-.95-3.55-.5-3.6-1.05-.15-1.5.95-4.6 1.05-2.8 2.05-4.15 1.45-2 5.5-5.15.4-.3 2 .45l1.5.8 14.1 2.1 16.65-4.6" fill="#84cef2" fill-rule="evenodd" transform="translate(22.2 4.15)"/><path d="m-7.2 23.35-4.15 5.15q-1 .7-1.65.85l-1.7.25 1.75-2.75 5.75-3.5m9.15-2.55 1 6.55-.55 2.1L.5 30l-2.35.5L.3 26.2l1.65-5.4" fill="#36b7f5" fill-rule="evenodd" transform="translate(22.2 4.15)"/><path d="M19.5 2.65q1.9 4.05-.95 9.55-2 3.95-6.05 6.35-3.75 2.2-8 2.4-4.1.15-9.3-2.45-5.25-2.65-5.8-5.3-1.7-8.05-1.5-8.85L-12 3l1.5 1.5 3.9 5.75q.3.6 1.45.4l1.9-.15q.5.2 2.05 0 1.4-.15 1.85.25l4 3L8.4 10.5l2.95-.05 2.65-.2q.6-.55 1.15-2.5L18 3l1.5-.35" fill="#84cef2" fill-rule="evenodd" transform="translate(22.2 4.15)"/><path d="m8.9 8.15.25 2.25m-10 0V8.15" fill="none" stroke="#00c9eb" stroke-linecap="round" stroke-linejoin="round" transform="translate(22.2 4.15)"/><path d="m-11.85 2.55 1.7 1.65q1.85 2.1 2.8 4.3.95 2.2 2.45 2.25l3.4-.4q2.75 0 5.75 3.65l1.9-1.95Q8.5 10.1 10.8 10.1l2.75.3q.85-.15 1.6-2.65 1.1-3.85 4.35-6.05" fill="none" stroke="#3e5bbf" stroke-linecap="round" stroke-linejoin="round" transform="translate(22.2 4.15)"/><path d="m22.15 19.65-5.9-5.5 1.45-.7 2.55 3.3 1.9 2.9M13.5 14.9l3.5 5.75.9 1.35-6.5-6.75 2.1-.35m-5.5 1 3 6.35L6 16l2-.1m-23 4.35L-8 14l1.75.65-8.75 5.6m11-5.1 1.25.5-2.85 2.75-4.75 4 2.1-3.15 4.25-4.1m4.25 0 1.65.35-4.9 6.75q0-1.85.65-3l2.6-4.1" fill="#36b7f5" fill-rule="evenodd" transform="translate(22.2 4.15)"/><path d="M9.25 22v-2.5l3.25 4.75q1.2 1.1 1.5 1.9l.5 1.75q0 1.5-.35 1.75l-2 1q-1.15.25-1.25-.25l-1-2.65q-.5-1.7-.5-3.5L9.25 22m6.15-1.6L13.25 17l4.5 3.9 3 2.75 2 2.6.4 1.25q-.65 2.15-1.5 2.15l-1.9.25q-.85-.15-1.25-.65-1.1-1.55-1.1-2.6-.9-2.85-.75-3.3L15.4 20.4" fill="#36b7f5" fill-rule="evenodd" transform="translate(22.2 4.15)"/><path d="m21.5 26.4-4.65-4.15-2.6-4.25q-1.85-2.5-1.5-2.75.4-.25 2.15-.6l4.75 5.25 1.5 2.5L22 25l-.5 1.4m-1-14.65 3.9 2.75 2.35 3.4 1.9 3.5q.75 1.5.75 3.85l-.25 1.5-1.65.25H26l-.75-1.1-1-2.5-1.35-2.5-5.75-7 3.35-2.15" fill="#36b7f5" fill-rule="evenodd" transform="translate(22.2 4.15)"/><path d="m-20.75 22.25 4.75.85 2.05 1.1q1.2.7 2.25.75l7.75-.25 4.45.75q2.15-.1 5.05-1.35l6.6.75q1.75 0 5.75-1.5l4.9.65q1.05-.05 2.3-1.15 1.25-1.1 1.8-1.1l2-.05" fill="none" stroke="#d4f1ff" stroke-linecap="round" stroke-linejoin="round" transform="translate(22.2 4.15)"/><path d="m7.65 17.45-3.6-.25-2.75.25-3.4-.95h-2.4l-1-.65-.95-.4-1.8-.6-.95-.9-.75-.95 3.2 1.35 8.8 1.85 6.1-.5 6.15-.95q1.55-.5 4.35-2.05l.35 2-2.5.3-1.85 1.2-4.15.25-2.85 1" fill="#36b7f5" fill-rule="evenodd" transform="translate(22.2 4.15)"/><path d="m19.4 3.2.4.9.35 1.9q.5 1.25.25 2.45l-.6 2.65-1.65 2.15-2.15.95-.1.55q-7.4 1.7-12 2-6.15.45-11.9-2.4-.9-.45-2.25-2.8l-1.5-3.05-.3-4.8 2.7 3.4L-8 9.75q.95 2.35 2.5 2.6l2.55-.35 2.7.1q1.25.65 4.5 3.65l1.3-1.4 1.8-1.3q1.45-.85 2.2-.95l3.6-.1 1.4-.4.95-1.6 1.05-2.25 1.2-2.65 1.65-1.9" fill="#36b7f5" fill-rule="evenodd" transform="translate(22.2 4.15)"/><path d="m1.5 15.25 5.4.2 4.5-1.1 4.15-.6L17.4 13l.1.75-.6.5q-5.75 2.2-12.85 2.2-7.05 0-12.75-2.6l-.05-.6 2.8.95q5.9.55 7.45 1.05" fill="#0093d9" fill-rule="evenodd" transform="translate(22.2 4.15)"/><path d="m8.9 8.6.8.2q.8.25.7.8-.15.85-1.25 1.55.85.95-.5 1.45l-1.9.1q.15 1.5-.95 2-1.05.5-1.8-.35l-2.25-.1q-.6-.35-.6-1.15l.15-.75q-1.25 1-2.05.35-.55-.45-.5-1.2l.15-.65q-1.25-.35-1.15-1.1.05-.45.75-.9l.75-.35.55-.7q.75-.65 1.6-.35 1.4.5 1.25 1.75.1-.35.35-.75.45-.75 1.05-.75 1 0 1.5 1.4l.25-.7q.4-.75 1.1-.9 1.1-.15 2 1.1" fill="#fff" fill-rule="evenodd" transform="translate(22.2 4.15)"/><path d="M8.9 8.6q-.9-1.25-2-1.1-.7.15-1.1.9l-.25.7q-.5-1.4-1.5-1.4-.6 0-1.05.75-.25.4-.35.75.15-1.25-1.25-1.75-.85-.3-1.6.35l-.55.7-.75.35q-.7.45-.75.9-.1.75 1.15 1.1l-.15.65q-.05.75.5 1.2.8.65 2.05-.35l-.15.75q0 .8.6 1.15l2.25.1q.75.85 1.8.35 1.1-.5.95-2l1.9-.1q1.35-.5.5-1.45 1.1-.7 1.25-1.55.1-.55-.7-.8l-.8-.2Z" fill="none" stroke="#5472b2" stroke-linecap="round" stroke-linejoin="round" transform="translate(22.2 4.15)"/><path d="M22.9 19.45q2.35 3.9 1.1 6-.9 1.5-5.3-.5-3.25 4-4.55 3.4-1-.45-2.3-3.8-1.35-3.35-.7-4.1.55-.6 3.55-.05l2.9.65 3.1-3.2q1-.4 2.2 1.6" fill="#30c6ff" fill-rule="evenodd" transform="translate(22.2 4.15)"/><path d="m20.7 17.85 1.1-.1q.45.1 1.6 2.9 1.1 2.7.6 4l-.7 1.3-2.9-.4-1.9-1.1 2.7-.3q.9-.4.7-1.6-.1-.75-1.15-1.95l-1.05-1.05-.8.05 1.8-1.75" fill="#14aae3" fill-rule="evenodd" transform="translate(22.2 4.15)"/><path d="m18.7 25.55-2.7 2q1.4-2.7.9-4l-3.05-3.6 2.95 1 1.9 1.5q.4.75.35 1.9-.05 1-.35 1.2" fill="#14aae3" fill-rule="evenodd" transform="translate(22.2 4.15)"/><path d="M22.9 19.45q2.35 3.9 1.1 6-.9 1.5-5.3-.5-3.25 4-4.55 3.4-1-.45-2.3-3.8-1.35-3.35-.7-4.1.55-.6 3.55-.05l2.9.65 3.1-3.2q1-.4 2.2 1.6Z" fill="none" stroke="#3e5bbf" stroke-linecap="round" stroke-linejoin="round" transform="translate(22.2 4.15)"/><path d="m21.25 11.35 4.55 4.7q2.75 3.75 3.45 5.95 1.6 4.8.25 5.4-.4.2-1.75 0-1.3-.15-2.25.45-2 2.05-3.85 2.55l-2.45.05-2.9-.1q-3.45 1.2-6.5 1.2-1.35 0-3-.75-1.4-.65-3.15-.45-3.8.95-6.35.95-1.35 0-2.8-.85-1.65-.95-2.85-1.1l-3.6.2-3.15-.15q-2.15-1.65-3.4-1.9l-1.9-.25q-1.05-.2-1.2-1-.5-2.6 2-6.85 2.9-4.35 6.7-6.8" fill="none" stroke="#3e5bbf" stroke-linecap="round" stroke-linejoin="round" transform="translate(22.2 4.15)"/></g></defs></svg>

<?xml version="1.0" encoding="UTF-8" standalone="no"?>
<svg xmlns:xlink="http://www.w3.org/1999/xlink" height="82.0px" width="84.85px" xmlns="http://www.w3.org/2000/svg">
  <g transform="matrix(1.0, 0.0, 0.0, 1.0, 37.4, 42.25)">
    <use height="38.0" transform="matrix(1.0, 0.0, 0.0, 1.0, -11.95, -17.45)" width="32.05" xlink:href="#sprite0"/>
    <use height="21.6" transform="matrix(1.0, 0.0, 0.0, 1.0, -12.25, -17.95)" width="32.65" xlink:href="#sprite1"/>
    <use height="36.2" transform="matrix(1.0, 0.0, 0.0, 1.0, -22.2, -4.15)" width="52.8" xlink:href="#shape2"/>
  </g>
  <defs>
    <g id="sprite0" transform="matrix(1.0, 0.0, 0.0, 1.0, -0.05, 0.0)">
      <use height="38.0" transform="matrix(1.0, 0.0, 0.0, 1.0, 0.05, 0.0)" width="32.05" xlink:href="#shape0"/>
    </g>
    <g id="shape0" transform="matrix(1.0, 0.0, 0.0, 1.0, -0.05, 0.0)">
      <path d="M27.35 7.4 Q29.5 11.55 30.9 16.15 32.35 20.85 32.05 25.65 31.7 30.6 27.85 33.75 24.05 36.95 19.1 37.8 L16.5 38.0 Q12.9 38.0 9.45 36.85 4.8 35.25 2.35 31.35 -0.2 27.4 0.05 23.0 0.25 18.6 2.05 13.7 3.85 8.75 7.0 5.05 10.1 1.3 14.7 0.1 L16.5 0.0 Q18.4 0.05 20.2 0.8 24.95 2.85 27.35 7.4" fill="#ffffff" fill-rule="evenodd" stroke="none"/>
    </g>
    <g id="sprite1" transform="matrix(1.0, 0.0, 0.0, 1.0, 0.25, 0.5)">
      <use height="21.6" transform="matrix(1.0, 0.0, 0.0, 1.0, -0.25, -0.5)" width="32.65" xlink:href="#shape1"/>
    </g>
    <g id="shape1" transform="matrix(1.0, 0.0, 0.0, 1.0, 0.25, 0.5)">
      <path d="M31.9 20.6 Q31.6 18.35 30.9 16.15 29.5 11.55 27.35 7.4 24.95 2.85 20.2 0.8 17.55 -0.3 14.7 0.1 10.1 1.3 7.0 5.05 3.85 8.75 2.05 13.7 0.7 17.3 0.25 20.6" fill="none" stroke="#000000" stroke-linecap="round" stroke-linejoin="round" stroke-width="1.0"/>
    </g>
    <g id="shape2" transform="matrix(1.0, 0.0, 0.0, 1.0, 22.2, 4.15)">
      <path d="M-4.2 -2.3 Q-3.5 -0.45 -4.0 0.85 -4.4 2.05 -6.0 2.65 L-8.25 2.75 Q-9.05 2.3 -9.7 0.5 -10.45 -1.45 -9.6 -2.15 -7.4 -3.9 -5.85 -4.0 -4.9 -4.1 -4.2 -2.3" fill="#ffc4c4" fill-rule="evenodd" stroke="none"/>
      <path d="M13.25 -3.7 Q16.95 -5.05 17.05 -2.45 17.2 -0.05 14.85 2.05 12.85 3.85 12.0 0.45 11.2 -2.95 13.25 -3.7" fill="#ffc4c4" fill-rule="evenodd" stroke="none"/>
      <path d="M18.0 14.2 L17.7 14.5 17.45 14.85 17.15 15.15 16.9 15.5 16.3 16.1 15.75 16.5 15.6 16.65 15.1 17.05 14.85 17.2 14.65 17.4 13.85 17.9 13.65 18.1 12.6 18.7 10.4 19.75 6.85 20.7 1.95 20.8 -2.8 19.8 -5.0 18.8 -6.9 17.6 -8.55 16.1 -9.9 14.3" fill="none" stroke="#333333" stroke-linecap="round" stroke-linejoin="round" stroke-width="0.9500000000000001"/>
      <path d="M4.3 20.75 Q-6.1 20.75 -10.15 12.5 -11.4 9.9 -11.9 6.8 L-12.1 4.2 Q-1.5 8.2 2.65 8.45 6.35 8.65 12.25 6.7 L19.9 3.7 Q20.2 7.95 18.35 12.25 14.75 20.75 4.3 20.75" fill="#bfeeff" fill-rule="evenodd" stroke="none"/>
      <path d="M-9.45 5.45 Q-1.2 8.5 3.9 8.5 9.0 8.5 16.75 5.1" fill="none" stroke="#0089a1" stroke-linecap="round" stroke-linejoin="round" stroke-width="1.0"/>
      <path d="M21.15 11.5 L23.4 13.5 Q25.95 16.1 27.65 19.0 31.25 25.35 29.9 27.15 L28.4 27.4 25.5 27.85 Q23.85 29.8 22.0 30.25 L18.95 30.5 16.3 30.35 Q12.4 31.55 9.8 31.55 6.3 30.35 3.65 30.35 L-2.7 31.3 -5.6 30.4 Q-7.4 29.5 -8.35 29.35 L-14.7 29.6 Q-15.6 29.4 -16.55 28.65 -17.6 27.85 -18.0 27.7 -21.55 27.2 -21.6 26.65 -21.75 25.15 -20.65 22.05 -19.6 19.25 -18.6 17.9 -17.15 15.9 -13.1 12.75 -12.7 12.45 -11.1 13.2 L-9.6 14.0 4.5 16.1 21.15 11.5" fill="#84cef2" fill-rule="evenodd" stroke="none"/>
      <path d="M-7.2 23.35 L-11.35 28.5 Q-12.35 29.2 -13.0 29.35 L-14.7 29.6 -12.95 26.85 -7.2 23.35" fill="#36b7f5" fill-rule="evenodd" stroke="none"/>
      <path d="M1.95 20.8 L2.95 27.35 2.4 29.45 0.5 30.0 -1.85 30.5 0.3 26.2 1.95 20.8" fill="#36b7f5" fill-rule="evenodd" stroke="none"/>
      <path d="M19.5 2.65 Q21.4 6.7 18.55 12.2 16.55 16.15 12.5 18.55 8.75 20.75 4.5 20.95 0.4 21.1 -4.8 18.5 -10.05 15.85 -10.6 13.2 -12.3 5.15 -12.1 4.35 L-12.0 3.0 -10.5 4.5 -6.6 10.25 Q-6.3 10.85 -5.15 10.65 L-3.25 10.5 Q-2.75 10.7 -1.2 10.5 0.2 10.35 0.65 10.75 L4.65 13.75 8.4 10.5 11.35 10.45 14.0 10.25 Q14.6 9.7 15.15 7.75 L18.0 3.0 19.5 2.65" fill="#84cef2" fill-rule="evenodd" stroke="none"/>
      <path d="M8.9 8.15 L9.15 10.4" fill="none" stroke="#00c9eb" stroke-linecap="round" stroke-linejoin="round" stroke-width="1.0"/>
      <path d="M-0.85 10.4 L-0.85 8.15" fill="none" stroke="#00c9eb" stroke-linecap="round" stroke-linejoin="round" stroke-width="1.0"/>
      <path d="M-11.85 2.55 L-10.15 4.2 Q-8.3 6.3 -7.35 8.5 -6.4 10.7 -4.9 10.75 L-1.5 10.35 Q1.25 10.35 4.25 14.0 L6.15 12.05 Q8.5 10.1 10.8 10.1 L13.55 10.4 Q14.4 10.25 15.15 7.75 16.25 3.9 19.5 1.7" fill="none" stroke="#3e5bbf" stroke-linecap="round" stroke-linejoin="round" stroke-width="1.0"/>
      <path d="M22.15 19.65 L16.25 14.15 17.7 13.45 20.25 16.75 22.15 19.65" fill="#36b7f5" fill-rule="evenodd" stroke="none"/>
      <path d="M13.5 14.9 L17.0 20.65 17.9 22.0 11.4 15.25 13.5 14.9" fill="#36b7f5" fill-rule="evenodd" stroke="none"/>
      <path d="M8.0 15.9 L11.0 22.25 6.0 16.0 8.0 15.9" fill="#36b7f5" fill-rule="evenodd" stroke="none"/>
      <path d="M-15.0 20.25 L-8.0 14.0 -6.25 14.65 -15.0 20.25" fill="#36b7f5" fill-rule="evenodd" stroke="none"/>
      <path d="M-4.0 15.15 L-2.75 15.65 -5.6 18.4 -10.35 22.4 -8.25 19.25 -4.0 15.15" fill="#36b7f5" fill-rule="evenodd" stroke="none"/>
      <path d="M0.25 15.15 L1.9 15.5 -3.0 22.25 Q-3.0 20.4 -2.35 19.25 L0.25 15.15" fill="#36b7f5" fill-rule="evenodd" stroke="none"/>
      <path d="M9.25 22.0 L9.25 19.5 12.5 24.25 Q13.7 25.35 14.0 26.15 L14.5 27.9 Q14.5 29.4 14.15 29.65 L12.15 30.65 Q11.0 30.9 10.9 30.4 L9.9 27.75 Q9.4 26.05 9.4 24.25 L9.25 22.0" fill="#36b7f5" fill-rule="evenodd" stroke="none"/>
      <path d="M15.4 20.4 L13.25 17.0 17.75 20.9 20.75 23.65 22.75 26.25 23.15 27.5 Q22.5 29.65 21.65 29.65 L19.75 29.9 Q18.9 29.75 18.5 29.25 17.4 27.7 17.4 26.65 16.5 23.8 16.65 23.35 L15.4 20.4" fill="#36b7f5" fill-rule="evenodd" stroke="none"/>
      <path d="M21.5 26.4 L16.85 22.25 14.25 18.0 Q12.4 15.5 12.75 15.25 13.15 15.0 14.9 14.65 L19.65 19.9 21.15 22.4 22.0 25.0 21.5 26.4" fill="#36b7f5" fill-rule="evenodd" stroke="none"/>
      <path d="M20.5 11.75 L24.4 14.5 26.75 17.9 28.65 21.4 Q29.4 22.9 29.4 25.25 L29.15 26.75 27.5 27.0 26.0 27.0 25.25 25.9 24.25 23.4 22.9 20.9 17.15 13.9 20.5 11.75" fill="#36b7f5" fill-rule="evenodd" stroke="none"/>
      <path d="M-20.75 22.25 L-16.0 23.1 -13.95 24.2 Q-12.75 24.9 -11.7 24.95 L-3.95 24.7 0.5 25.45 Q2.65 25.35 5.55 24.1 L12.15 24.85 Q13.9 24.85 17.9 23.35 L22.8 24.0 Q23.85 23.95 25.1 22.85 26.35 21.75 26.9 21.75 L28.9 21.7" fill="none" stroke="#d4f1ff" stroke-linecap="round" stroke-linejoin="round" stroke-width="1.0"/>
      <path d="M7.65 17.45 L4.05 17.2 1.3 17.45 -2.1 16.5 -4.5 16.5 -5.5 15.85 -6.45 15.45 -8.25 14.85 -9.2 13.95 -9.95 13.0 -6.75 14.35 2.05 16.2 8.15 15.7 14.3 14.75 Q15.85 14.25 18.65 12.7 L19.0 14.7 16.5 15.0 14.65 16.2 10.5 16.45 7.65 17.45" fill="#36b7f5" fill-rule="evenodd" stroke="none"/>
      <path d="M19.4 3.2 L19.8 4.1 20.15 6.0 Q20.65 7.25 20.4 8.45 L19.8 11.1 18.15 13.25 16.0 14.2 15.9 14.75 Q8.5 16.45 3.9 16.75 -2.25 17.2 -8.0 14.35 -8.9 13.9 -10.25 11.55 L-11.75 8.5 -12.05 3.7 -9.35 7.1 -8.0 9.75 Q-7.05 12.1 -5.5 12.35 L-2.95 12.0 -0.25 12.1 Q1.0 12.75 4.25 15.75 L5.55 14.35 7.35 13.05 Q8.8 12.2 9.55 12.1 L13.15 12.0 14.55 11.6 15.5 10.0 16.55 7.75 17.75 5.1 19.4 3.2" fill="#36b7f5" fill-rule="evenodd" stroke="none"/>
      <path d="M1.5 15.25 L6.9 15.45 11.4 14.35 15.55 13.75 17.4 13.0 17.5 13.75 16.9 14.25 Q11.15 16.45 4.05 16.45 -3.0 16.45 -8.7 13.85 L-8.75 13.25 -5.95 14.2 Q-0.05 14.75 1.5 15.25" fill="#0093d9" fill-rule="evenodd" stroke="none"/>
      <path d="M8.9 8.6 L9.7 8.8 Q10.5 9.05 10.4 9.6 10.25 10.45 9.15 11.15 10.0 12.1 8.65 12.6 L6.75 12.7 Q6.9 14.2 5.8 14.7 4.75 15.2 4.0 14.35 L1.75 14.25 Q1.15 13.9 1.15 13.1 L1.3 12.35 Q0.05 13.35 -0.75 12.7 -1.3 12.25 -1.25 11.5 L-1.1 10.85 Q-2.35 10.5 -2.25 9.75 -2.2 9.3 -1.5 8.85 L-0.75 8.5 -0.2 7.8 Q0.55 7.15 1.4 7.45 2.8 7.95 2.65 9.2 2.75 8.85 3.0 8.45 3.45 7.7 4.05 7.7 5.05 7.7 5.55 9.1 L5.8 8.4 Q6.2 7.65 6.9 7.5 8.0 7.35 8.9 8.6" fill="#ffffff" fill-rule="evenodd" stroke="none"/>
      <path d="M8.9 8.6 Q8.0 7.35 6.9 7.5 6.2 7.65 5.8 8.4 L5.55 9.1 Q5.05 7.7 4.05 7.7 3.45 7.7 3.0 8.45 2.75 8.85 2.65 9.2 2.8 7.95 1.4 7.45 0.55 7.15 -0.2 7.8 L-0.75 8.5 -1.5 8.85 Q-2.2 9.3 -2.25 9.75 -2.35 10.5 -1.1 10.85 L-1.25 11.5 Q-1.3 12.25 -0.75 12.7 0.05 13.35 1.3 12.35 L1.15 13.1 Q1.15 13.9 1.75 14.25 L4.0 14.35 Q4.75 15.2 5.8 14.7 6.9 14.2 6.75 12.7 L8.65 12.6 Q10.0 12.1 9.15 11.15 10.25 10.45 10.4 9.6 10.5 9.05 9.7 8.8 L8.9 8.6 Z" fill="none" stroke="#5472b2" stroke-linecap="round" stroke-linejoin="round" stroke-width="1.0"/>
      <path d="M22.9 19.45 Q25.25 23.35 24.0 25.45 23.1 26.95 18.7 24.95 15.45 28.95 14.15 28.35 13.15 27.9 11.85 24.55 10.5 21.2 11.15 20.45 11.7 19.85 14.7 20.4 L17.6 21.05 20.7 17.85 Q21.7 17.45 22.9 19.45" fill="#30c6ff" fill-rule="evenodd" stroke="none"/>
      <path d="M20.7 17.85 L21.8 17.75 Q22.25 17.85 23.4 20.65 24.5 23.35 24.0 24.65 L23.3 25.95 20.4 25.55 18.5 24.45 21.2 24.15 Q22.1 23.75 21.9 22.55 21.8 21.8 20.75 20.6 L19.7 19.55 18.9 19.6 20.7 17.85" fill="#14aae3" fill-rule="evenodd" stroke="none"/>
      <path d="M18.7 25.55 L16.0 27.55 Q17.4 24.85 16.9 23.55 L13.85 19.95 16.8 20.95 18.7 22.45 Q19.1 23.2 19.05 24.35 19.0 25.35 18.7 25.55" fill="#14aae3" fill-rule="evenodd" stroke="none"/>
      <path d="M22.9 19.45 Q25.25 23.35 24.0 25.45 23.1 26.95 18.7 24.95 15.45 28.95 14.15 28.35 13.15 27.9 11.85 24.55 10.5 21.2 11.15 20.45 11.7 19.85 14.7 20.4 L17.6 21.05 20.7 17.85 Q21.7 17.45 22.9 19.45 Z" fill="none" stroke="#3e5bbf" stroke-linecap="round" stroke-linejoin="round" stroke-width="1.0"/>
      <path d="M21.25 11.35 L25.8 16.05 Q28.55 19.8 29.25 22.0 30.85 26.8 29.5 27.4 29.1 27.6 27.75 27.4 26.45 27.25 25.5 27.85 23.5 29.9 21.65 30.4 L19.2 30.45 16.3 30.35 Q12.85 31.55 9.8 31.55 8.45 31.55 6.8 30.8 5.4 30.15 3.65 30.35 -0.15 31.3 -2.7 31.3 -4.05 31.3 -5.5 30.45 -7.15 29.5 -8.35 29.35 L-11.95 29.55 -15.1 29.4 Q-17.25 27.75 -18.5 27.5 L-20.4 27.25 Q-21.45 27.05 -21.6 26.25 -22.1 23.65 -19.6 19.4 -16.7 15.05 -12.9 12.6" fill="none" stroke="#3e5bbf" stroke-linecap="round" stroke-linejoin="round" stroke-width="1.0"/>
    </g>
  </defs>
</svg>
